X: 146
P: Longways for as many as will
M: C|
L: 1/8
K: F % and Dm
c2 |\
dcdc A2c2 | dcdc A2(GF) | A2G2 G2(FG) | A2G2 G2c2 |\
dcdc A2c2 | dcdc A2(GF) | A2D2 D2C2 | F2D2 D2 |]

